;FLAVOR:Marlin
;TIME:1504
;Filament used: 0.865585m
;Layer height: 0.2
;MINX:134.772
;MINY:84.77
;MINZ:0.2
;MAXX:149.37
;MAXY:99.368
;MAXZ:25
;Generated with Cura_SteamEngine 5.2.1
M140 S60
M105
M190 S60
M104 S200
M105
M109 S200
M82 ;absolute extrusion mode
G28 ; home all axes
 G29; ABL
 M117 Purge extruder
 G92 E0 ; reset extruder
 G1 Z1.0 F3000 ; move z up little to prevent scratching of surface
 G1 X2 Y20 Z0.3 F5000.0 ; move to start-line position
 G1 X2 Y200.0 Z0.3 F1500.0 E15 ; draw 1st line
 G1 X2 Y200.0 Z0.4 F5000.0 ; move to side a little
 G1 X2 Y20 Z0.4 F1500.0 E30 ; draw 2nd line
 G92 E0 ; reset extruder
 G1 Z1.0 F3000 ; move z up little to prevent scratching of surface
G92 E0
G92 E0
G1 F1500 E-2
;LAYER_COUNT:125
;LAYER:0
M107
G1 F300 Z0.6
;MESH:bushings.stl
G0 F3600 X142.067 Y98.347 Z0.6
;TYPE:WALL-INNER
G1 F300 Z0.2
G1 F1500 E0
G1 F441.2 X140.977 Y98.253 E0.04949
G1 X139.919 Y97.968 E0.09905
G1 F442 X138.985 Y97.536 E0.14551
G1 F442.8 X138.881 Y97.476 E0.15093
G1 F442 X138.037 Y96.88 E0.19758
G1 F440.4 X137.258 Y96.101 E0.2475
G1 F441.2 X136.631 Y95.207 E0.29689
G1 X136.17 Y94.215 E0.34637
G1 X135.887 Y93.16 E0.39578
G1 X135.793 Y92.067 E0.44541
G1 X135.887 Y90.976 E0.49494
G1 X136.172 Y89.917 E0.54455
G1 X136.633 Y88.928 E0.5939
G1 X137.262 Y88.033 E0.64339
G1 F440.4 X138.039 Y87.257 E0.69315
G1 F441.2 X138.933 Y86.629 E0.74257
G1 X139.921 Y86.169 E0.79187
G1 X140.981 Y85.885 E0.84151
G1 X142.074 Y85.79 E0.89113
G1 X143.164 Y85.885 E0.94062
G1 F442 X144.163 Y86.152 E0.98731
G1 F442.8 X144.273 Y86.191 E0.99257
G1 F442 X145.212 Y86.631 E1.03939
G1 F441.2 X146.106 Y87.258 E1.08879
G1 X146.883 Y88.038 E1.13859
G1 X147.511 Y88.931 E1.18797
G1 X147.97 Y89.919 E1.23725
G1 F440.4 X148.255 Y90.979 E1.28699
G1 X148.349 Y92.071 E1.33666
G1 F441.2 X148.255 Y93.162 E1.38619
G1 X147.97 Y94.219 E1.43571
G1 F442 X147.509 Y95.209 E1.48502
G1 F441.2 X146.879 Y96.105 E1.53456
G1 F440.4 X146.102 Y96.882 E1.58436
G1 F442 X145.26 Y97.475 E1.63086
G1 F442.8 X145.21 Y97.509 E1.63358
G1 F441.2 X144.22 Y97.969 E1.68296
G1 F440.4 X143.161 Y98.253 E1.73265
G1 X142.067 Y98.347 E1.78241
G0 F3600 X142.053 Y97.875
;TYPE:WALL-OUTER
G1 F600 X141.06 Y97.788 E1.81391
G1 X140.068 Y97.519 E1.84638
G1 X139.167 Y97.1 E1.87778
G1 X138.34 Y96.518 E1.90973
G1 X137.621 Y95.799 E1.94186
G1 X137.032 Y94.956 E1.97435
G1 X136.614 Y94.054 E2.00577
G1 X136.352 Y93.08 E2.03764
G1 X136.265 Y92.053 E2.0702
G1 X136.352 Y91.058 E2.10176
G1 X136.621 Y90.067 E2.13421
G1 X137.05 Y89.151 E2.16617
G1 X137.623 Y88.337 E2.19762
G1 X138.341 Y87.62 E2.22968
G1 X139.184 Y87.031 E2.26218
G1 X140.1 Y86.607 E2.29407
G1 X141.042 Y86.354 E2.32489
G1 X142.072 Y86.262 E2.35756
G1 X143.082 Y86.35 E2.3896
G1 X144.074 Y86.619 E2.42207
G1 X144.974 Y87.039 E2.45346
G1 X145.802 Y87.621 E2.48543
G1 X146.52 Y88.339 E2.51752
G1 X147.101 Y89.167 E2.54948
G1 X147.532 Y90.097 E2.58187
G1 X147.79 Y91.059 E2.61334
G1 X147.877 Y92.085 E2.64587
G1 X147.79 Y93.08 E2.67743
G1 X147.533 Y94.039 E2.7088
G1 X147.101 Y94.972 E2.74129
G1 X146.518 Y95.801 E2.77331
G1 X145.801 Y96.519 E2.80537
G1 X144.99 Y97.09 E2.83671
G1 X144.041 Y97.531 E2.86978
G1 X143.081 Y97.788 E2.90118
G1 X142.053 Y97.875 E2.93378
G0 F3600 X142.066 Y98.894
;TYPE:WALL-INNER
G1 F440.4 X143.254 Y98.79 E2.98782
G1 X144.406 Y98.482 E3.04186
G1 F441.2 X145.481 Y97.98 E3.09553
G1 X146.452 Y97.302 E3.14909
G1 F440.4 X147.297 Y96.457 E3.20325
G1 F441.2 X147.98 Y95.482 E3.2571
G1 F442 X148.481 Y94.406 E3.31069
G1 F441.2 X148.791 Y93.256 E3.36456
G1 X148.896 Y92.072 E3.41833
G1 F440.4 X148.795 Y90.911 E3.47114
G1 X148.483 Y89.733 E3.52637
G1 F441.2 X147.982 Y88.66 E3.57993
G1 X147.303 Y87.688 E3.63356
G1 X146.455 Y86.841 E3.68778
G1 X145.484 Y86.16 E3.74143
G1 X144.41 Y85.66 E3.79501
G1 X143.257 Y85.349 E3.84903
G1 X142.075 Y85.245 E3.9027
G1 X140.888 Y85.348 E3.9566
G1 X139.735 Y85.658 E4.01061
G1 X138.662 Y86.158 E4.06415
G1 X137.69 Y86.837 E4.11779
G1 F440.4 X136.844 Y87.681 E4.17194
G1 F441.2 X136.162 Y88.656 E4.22576
G1 X135.66 Y89.729 E4.27935
G1 X135.351 Y90.882 E4.33334
G1 X135.246 Y92.066 E4.38711
G1 X135.35 Y93.253 E4.44101
G1 X135.657 Y94.4 E4.49472
G1 X136.16 Y95.478 E4.54852
G1 X136.838 Y96.45 E4.60213
G1 F440.4 X137.686 Y97.299 E4.65651
G1 F441.2 X138.658 Y97.978 E4.71014
G1 F442 X139.732 Y98.479 E4.76365
G1 F441.2 X140.883 Y98.789 E4.81757
G1 X142.066 Y98.894 E4.87129
G0 F3600 X142.066 Y99.368
;TYPE:WALL-OUTER
G1 F600 X143.336 Y99.257 E4.91157
G1 X144.569 Y98.927 E4.9519
G1 X145.717 Y98.391 E4.99194
G1 X146.756 Y97.665 E5.03199
G1 X147.66 Y96.761 E5.07238
G1 X148.39 Y95.719 E5.11258
G1 X148.927 Y94.569 E5.15268
G1 X149.258 Y93.339 E5.19293
G1 X149.37 Y92.072 E5.23312
G1 X149.265 Y90.869 E5.27128
G1 X149.259 Y90.804 E5.27334
G1 X148.928 Y89.571 E5.31368
G1 X148.393 Y88.423 E5.3537
G1 X147.666 Y87.384 E5.39377
G1 X146.76 Y86.478 E5.43425
G1 X145.721 Y85.749 E5.47435
G1 X144.573 Y85.214 E5.51437
G1 X143.34 Y84.882 E5.55472
G1 X142.075 Y84.771 E5.59484
G1 X140.805 Y84.881 E5.63512
G1 X139.573 Y85.212 E5.67543
G1 X138.425 Y85.747 E5.71545
G1 X137.385 Y86.474 E5.75554
G1 X136.481 Y87.377 E5.79592
G1 X135.751 Y88.419 E5.83612
G1 X135.215 Y89.566 E5.87612
G1 X134.884 Y90.799 E5.91646
G1 X134.772 Y92.066 E5.95665
G1 X134.883 Y93.335 E5.9969
G1 X135.211 Y94.563 E6.03706
G1 X135.75 Y95.715 E6.07725
G1 X136.475 Y96.755 E6.11731
G1 X137.382 Y97.662 E6.15783
G1 X138.421 Y98.388 E6.19788
G1 X139.569 Y98.925 E6.23793
G1 X140.8 Y99.256 E6.27821
G1 X142.066 Y99.368 E6.31837
;MESH:NONMESH
G0 F300 X142.066 Y99.368 Z0.4
G0 F3600 X142.071 Y98.371
;TIME_ELAPSED:24.963657
;LAYER:1
M106 S85
;TYPE:WALL-INNER
;MESH:bushings.stl
G1 F846 X140.976 Y98.276 E6.36671
G1 X139.913 Y97.99 E6.41513
G1 F847.6 X138.918 Y97.528 E6.4633
G1 X138.022 Y96.898 E6.51138
G1 F846 X137.242 Y96.118 E6.5599
G1 F847.6 X136.612 Y95.222 E6.60799
G1 F846 X136.148 Y94.223 E6.65644
G1 X135.864 Y93.164 E6.70467
G1 X135.769 Y92.071 E6.75293
G1 X135.864 Y90.974 E6.80136
G1 X136.148 Y89.915 E6.84959
G1 X136.612 Y88.916 E6.89804
G1 F847.6 X137.208 Y88.064 E6.94369
G1 X137.282 Y87.976 E6.94874
G1 X137.979 Y87.28 E6.99199
G1 X138.066 Y87.207 E6.99697
G1 X138.918 Y86.61 E7.04265
G1 X139.913 Y86.148 E7.09081
G1 F846 X140.976 Y85.862 E7.13923
G1 X142.071 Y85.767 E7.18758
G1 F847.6 X143.165 Y85.861 E7.23578
G1 X144.228 Y86.148 E7.28412
G1 X145.224 Y86.61 E7.33233
G1 X146.12 Y87.241 E7.38044
G1 F846 X146.899 Y88.02 E7.4289
G1 F847.6 X147.53 Y88.916 E7.47701
G1 X147.991 Y89.911 E7.52516
G1 F846 X148.278 Y90.975 E7.57363
G1 X148.373 Y92.067 E7.62185
G1 F847.6 X148.279 Y93.164 E7.67018
G1 X147.994 Y94.224 E7.71837
G1 X147.53 Y95.222 E7.76669
G1 X146.899 Y96.118 E7.81481
G1 F846 X146.12 Y96.898 E7.8633
G1 F847.6 X145.224 Y97.528 E7.91139
G1 F846 X144.228 Y97.991 E7.9597
G1 X143.165 Y98.276 E8.00811
G1 X142.071 Y98.371 E8.05641
G0 F5400 X142.071 Y97.907
;TYPE:WALL-OUTER
G1 F891.6 X141.055 Y97.819 E8.08863
G1 X140.057 Y97.548 E8.12131
G1 X139.151 Y97.128 E8.15286
G1 X138.32 Y96.542 E8.18499
G1 X137.598 Y95.82 E8.21725
G1 X137.004 Y94.972 E8.24997
G1 X136.585 Y94.065 E8.28154
G1 X136.325 Y93.104 E8.31299
G1 X136.234 Y92.053 E8.34633
G1 X136.321 Y91.053 E8.37804
G1 X136.585 Y90.073 E8.41011
G1 X137.004 Y89.166 E8.44168
G1 X137.598 Y88.318 E8.47439
G1 X138.32 Y87.597 E8.50663
G1 X139.152 Y87.011 E8.53879
G1 X140.089 Y86.578 E8.5714
G1 X141.036 Y86.323 E8.60239
G1 X142.071 Y86.231 E8.63522
G1 X143.087 Y86.319 E8.66745
G1 X144.052 Y86.578 E8.69902
G1 X144.99 Y87.011 E8.73166
G1 X145.822 Y87.597 E8.76382
G1 X146.543 Y88.318 E8.79603
G1 X147.129 Y89.15 E8.82819
G1 X147.555 Y90.07 E8.86022
G1 X147.817 Y91.034 E8.89179
G1 X147.909 Y92.067 E8.92456
G1 X147.821 Y93.085 E8.95684
G1 X147.557 Y94.066 E8.98894
G1 X147.129 Y94.988 E9.02106
G1 X146.543 Y95.82 E9.05322
G1 X145.822 Y96.542 E9.08546
G1 X144.975 Y97.136 E9.11814
G1 X144.068 Y97.554 E9.1497
G1 X143.087 Y97.819 E9.18181
G1 X142.071 Y97.907 E9.21403
G0 F5400 X142.071 Y98.902
;TYPE:WALL-INNER
G1 F846 X143.255 Y98.798 E9.26631
G1 X144.409 Y98.488 E9.31887
G1 X145.488 Y97.985 E9.37124
G1 F847.6 X146.461 Y97.304 E9.42338
G1 F846 X147.305 Y96.459 E9.47591
G1 F847.6 X147.987 Y95.486 E9.52808
G1 X148.491 Y94.403 E9.58052
G1 X148.8 Y93.254 E9.63276
G1 X148.904 Y92.067 E9.68507
G1 F846 X148.8 Y90.885 E9.73726
G1 X148.49 Y89.731 E9.78982
G1 F847.6 X147.987 Y88.652 E9.84209
G1 X147.305 Y87.679 E9.89426
G1 F846 X146.461 Y86.835 E9.94676
G1 F847.6 X145.488 Y86.153 E9.99893
G1 X144.409 Y85.65 E10.05119
G1 X143.255 Y85.34 E10.10365
G1 X142.071 Y85.236 E10.15583
G1 F846 X140.886 Y85.34 E10.20816
G1 X139.733 Y85.65 E10.26068
G1 F847.6 X138.654 Y86.153 E10.31294
G1 X137.681 Y86.835 E10.36511
G1 F846 X136.836 Y87.679 E10.41764
G1 F847.6 X136.155 Y88.652 E10.46978
G1 F846 X135.65 Y89.735 E10.52235
G1 X135.342 Y90.885 E10.57471
G1 X135.239 Y92.071 E10.62708
G1 X135.342 Y93.254 E10.67931
G1 X135.65 Y94.403 E10.73164
G1 X136.155 Y95.486 E10.7842
G1 F847.6 X136.777 Y96.376 E10.83187
G1 X136.836 Y96.459 E10.83634
G1 F846 X137.681 Y97.304 E10.8889
G1 F847.6 X138.654 Y97.985 E10.94105
G1 X139.733 Y98.489 E10.99333
G1 F846 X140.886 Y98.798 E11.04584
G1 X142.071 Y98.902 E11.09816
G0 F5400 X142.071 Y99.368
;TYPE:WALL-OUTER
G1 F891.6 X143.336 Y99.257 E11.13828
G1 X144.569 Y98.927 E11.17861
G1 X145.721 Y98.389 E11.21879
G1 X146.76 Y97.662 E11.25886
G1 X147.663 Y96.758 E11.29923
G1 X148.391 Y95.719 E11.33932
G1 X148.929 Y94.563 E11.3796
G1 X149.259 Y93.335 E11.41978
G1 X149.37 Y92.067 E11.46
G1 X149.259 Y90.804 E11.50006
G1 X148.928 Y89.571 E11.5404
G1 X148.391 Y88.419 E11.58056
G1 X147.663 Y87.38 E11.62065
G1 X146.76 Y86.477 E11.661
G1 X145.721 Y85.749 E11.70108
G1 X144.569 Y85.212 E11.74124
G1 X143.336 Y84.881 E11.78158
G1 X142.071 Y84.77 E11.82171
G1 X140.805 Y84.881 E11.86186
G1 X139.573 Y85.212 E11.90217
G1 X138.421 Y85.749 E11.94233
G1 X137.382 Y86.477 E11.98242
G1 X136.478 Y87.38 E12.02279
G1 X135.751 Y88.419 E12.06286
G1 X135.211 Y89.575 E12.10317
G1 X134.883 Y90.804 E12.14336
G1 X134.772 Y92.071 E12.18355
G1 X134.883 Y93.335 E12.22364
G1 X135.211 Y94.563 E12.2638
G1 X135.751 Y95.719 E12.30412
G1 X136.397 Y96.641 E12.33969
G1 X136.478 Y96.758 E12.34419
G1 X137.382 Y97.662 E12.38458
G1 X138.421 Y98.388 E12.42463
G1 X139.573 Y98.927 E12.46482
G1 X140.805 Y99.257 E12.50512
G1 X142.071 Y99.368 E12.54528
;MESH:NONMESH
G0 F300 X142.071 Y99.368 Z0.6
G0 F5400 X142.071 Y98.395
;TIME_ELAPSED:36.709606
;LAYER:2
M106 S170
;TYPE:WALL-INNER
;MESH:bushings.stl
G1 F897.9 X140.972 Y98.3 E12.59233
G1 X139.906 Y98.013 E12.63942
G1 F899.6 X138.906 Y97.549 E12.68635
G1 X138.007 Y96.916 E12.73316
G1 F897.9 X137.224 Y96.133 E12.7804
G1 F899.6 X136.591 Y95.234 E12.8272
G1 F897.9 X136.125 Y94.231 E12.87438
G1 X135.84 Y93.168 E12.92133
G1 X135.745 Y92.071 E12.96829
G1 X135.84 Y90.971 E13.01539
G1 X136.125 Y89.907 E13.06238
G1 X136.591 Y88.904 E13.10955
G1 F899.6 X137.224 Y88.005 E13.15636
G1 F897.9 X138.007 Y87.223 E13.20357
G1 F899.6 X138.906 Y86.59 E13.25038
G1 X139.906 Y86.125 E13.29733
G1 F897.9 X140.973 Y85.839 E13.34445
G1 X142.071 Y85.743 E13.39146
G1 X143.169 Y85.839 E13.43848
G1 F899.6 X144.236 Y86.124 E13.48549
G1 X145.236 Y86.59 E13.53246
G1 F897.9 X146.135 Y87.222 E13.57934
G1 F896.1 X146.918 Y88.005 E13.62667
G1 F897.9 X147.549 Y88.905 E13.67355
G1 X148.014 Y89.903 E13.72052
G1 X148.301 Y90.972 E13.76773
G1 X148.397 Y92.067 E13.81462
G1 F899.6 X148.302 Y93.168 E13.86167
G1 X148.016 Y94.231 E13.90853
G1 X147.993 Y94.285 E13.91103
G1 F903.1 X147.577 Y95.18 E13.95288
G1 X147.519 Y95.281 E13.95782
G1 F901.4 X146.917 Y96.133 E14.00215
G1 F897.9 X146.135 Y96.917 E14.04938
G1 X145.236 Y97.549 E14.09626
G1 X144.236 Y98.013 E14.14328
G1 X143.169 Y98.301 E14.19042
G1 X142.071 Y98.395 E14.23743
G0 F7200 X142.053 Y97.938
;TYPE:WALL-OUTER
G1 F874.3 X141.05 Y97.851 E14.26924
G1 X140.078 Y97.59 E14.30104
G1 X139.135 Y97.155 E14.33386
G1 X138.3 Y96.567 E14.36613
G1 X137.573 Y95.84 E14.39861
G1 X136.985 Y95.004 E14.43091
G1 X136.555 Y94.076 E14.46322
G1 X136.293 Y93.109 E14.49488
G1 X136.202 Y92.089 E14.52724
G1 X136.289 Y91.048 E14.56024
G1 X136.555 Y90.062 E14.59251
G1 X136.985 Y89.134 E14.62483
G1 X137.573 Y88.298 E14.65712
G1 X138.3 Y87.572 E14.68959
G1 X139.136 Y86.984 E14.72188
G1 X140.079 Y86.548 E14.75471
G1 X141.05 Y86.288 E14.78647
G1 X142.071 Y86.199 E14.81885
G1 X143.092 Y86.288 E14.85124
G1 X144.079 Y86.553 E14.88353
G1 X145.006 Y86.984 E14.91583
G1 X145.842 Y87.572 E14.94812
G1 X146.568 Y88.298 E14.98057
G1 X147.164 Y89.15 E15.01342
G1 X147.579 Y90.043 E15.04453
G1 X147.848 Y91.029 E15.07683
G1 X147.941 Y92.067 E15.10976
G1 X147.852 Y93.09 E15.1422
G1 X147.58 Y94.093 E15.17504
G1 X147.146 Y95.019 E15.20735
G1 X146.568 Y95.84 E15.23908
G1 X145.842 Y96.567 E15.27154
G1 X145.007 Y97.155 E15.30381
G1 X144.063 Y97.59 E15.33665
G1 X143.092 Y97.851 E15.36842
G1 X142.053 Y97.938 E15.40137
G0 F7200 X142.071 Y98.909
;TYPE:WALL-INNER
G1 F897.9 X143.256 Y98.806 E15.4521
G1 X144.412 Y98.496 E15.50316
G1 X145.492 Y97.992 E15.55399
G1 X146.465 Y97.31 E15.60468
G1 X147.311 Y96.464 E15.65571
G1 X147.994 Y95.49 E15.70646
G1 X148.499 Y94.406 E15.75747
G1 F899.6 X148.807 Y93.255 E15.80819
G1 X148.91 Y92.089 E15.85803
G1 F897.9 X148.808 Y90.884 E15.90961
G1 X148.497 Y89.728 E15.96068
G1 X147.994 Y88.648 E16.0115
G1 X147.311 Y87.675 E16.06221
G1 F896.1 X146.465 Y86.829 E16.11334
G1 F897.9 X145.492 Y86.147 E16.16402
G1 F899.6 X144.412 Y85.643 E16.21476
G1 X143.256 Y85.332 E16.26573
G1 F897.9 X142.071 Y85.228 E16.31647
G1 X140.885 Y85.332 E16.36725
G1 X139.73 Y85.642 E16.41827
G1 F899.6 X138.65 Y86.147 E16.46902
G1 X137.676 Y86.829 E16.51964
G1 F897.9 X136.83 Y87.674 E16.57065
G1 F899.6 X136.148 Y88.648 E16.62127
G1 F897.9 X135.642 Y89.732 E16.6723
G1 X135.334 Y90.884 E16.72316
G1 X135.231 Y92.071 E16.77399
G1 X135.334 Y93.255 E16.82468
G1 X135.642 Y94.406 E16.87551
G1 X136.148 Y95.49 E16.92653
G1 F899.6 X136.83 Y96.464 E16.97716
G1 F897.9 X137.676 Y97.31 E17.02819
G1 F899.6 X138.65 Y97.992 E17.07881
G1 X139.73 Y98.496 E17.12955
G1 F897.9 X140.885 Y98.806 E17.18056
G1 X142.071 Y98.909 E17.23134
G0 F7200 X142.071 Y99.368
;TYPE:WALL-OUTER
G1 F874.3 X143.336 Y99.257 E17.27147
G1 X144.569 Y98.927 E17.3118
G1 X145.721 Y98.389 E17.35197
G1 X146.76 Y97.662 E17.39204
G1 X147.663 Y96.758 E17.43241
G1 X148.391 Y95.719 E17.4725
G1 X148.93 Y94.563 E17.5128
G1 X149.258 Y93.335 E17.55296
G1 X149.364 Y92.128 E17.59124
G1 X149.37 Y92.067 E17.59318
G1 X149.259 Y90.805 E17.63321
G1 X148.928 Y89.571 E17.67358
G1 X148.391 Y88.419 E17.71374
G1 X147.663 Y87.38 E17.75383
G1 X146.76 Y86.477 E17.79418
G1 X145.721 Y85.75 E17.83425
G1 X144.569 Y85.212 E17.87442
G1 X143.336 Y84.881 E17.91476
G1 X142.071 Y84.77 E17.95488
G1 X140.806 Y84.881 E17.99501
G1 X139.573 Y85.212 E18.03534
G1 X138.421 Y85.75 E18.07552
G1 X137.382 Y86.477 E18.11559
G1 X136.478 Y87.38 E18.15596
G1 X135.751 Y88.419 E18.19603
G1 X135.211 Y89.575 E18.23634
G1 X134.883 Y90.804 E18.27653
G1 X134.772 Y92.071 E18.31672
G1 X134.883 Y93.335 E18.35681
G1 X135.211 Y94.563 E18.39697
G1 X135.751 Y95.719 E18.43729
G1 X136.478 Y96.758 E18.47736
G1 X137.382 Y97.662 E18.51775
G1 X138.421 Y98.389 E18.55782
G1 X139.573 Y98.927 E18.59799
G1 X140.805 Y99.257 E18.63829
G1 X142.071 Y99.368 E18.67845
;MESH:NONMESH
G0 F300 X142.071 Y99.368 Z0.8
G0 F7200 X142.071 Y98.418
;TIME_ELAPSED:48.259515
;LAYER:3
M106 S255
;TYPE:WALL-INNER
;MESH:bushings.stl
G1 F927 X140.968 Y98.323 E18.72429
G1 X139.898 Y98.035 E18.77018
G1 F928.9 X138.894 Y97.569 E18.81592
G1 X137.991 Y96.934 E18.86154
G1 F927 X137.206 Y96.149 E18.90751
G1 F928.9 X136.572 Y95.245 E18.95314
