;FLAVOR:Marlin
;TIME:1639
;Filament used: 0.94858m
;Layer height: 0.2
;MINX:142.701
;MINY:92.701
;MINZ:0.2
;MAXX:157.299
;MAXY:107.299
;MAXZ:25
;Generated with Cura_SteamEngine 5.2.1
M140 S60
M105
M190 S60
M104 S200
M105
M109 S200
M82 ;absolute extrusion mode
G28 ; home all axes
 G29; ABL
 M117 Purge extruder
 G92 E0 ; reset extruder
 G1 Z1.0 F3000 ; move z up little to prevent scratching of surface
 G1 X2 Y20 Z0.3 F5000.0 ; move to start-line position
 G1 X2 Y200.0 Z0.3 F1500.0 E15 ; draw 1st line
 G1 X2 Y200.0 Z0.4 F5000.0 ; move to side a little
 G1 X2 Y20 Z0.4 F1500.0 E30 ; draw 2nd line
 G92 E0 ; reset extruder
 G1 Z1.0 F3000 ; move z up little to prevent scratching of surface
G92 E0
G92 E0
G1 F1500 E-2
;LAYER_COUNT:125
;LAYER:0
M107
G1 F300 Z0.6
G0 F3600 X146.177 Y97.833 Z0.6
;TYPE:SKIRT
G1 F300 Z0.2
G1 F1500 E0
G1 F600 X145.855 Y98.511 E0.02496
G1 X145.676 Y99.199 E0.04861
G1 X145.601 Y99.966 E0.07424
G1 X145.66 Y100.706 E0.09893
G1 X145.885 Y101.552 E0.12805
G1 X146.204 Y102.222 E0.15273
G1 X146.604 Y102.792 E0.17589
G1 X147.189 Y103.383 E0.20355
G1 X147.797 Y103.811 E0.22828
G1 X148.477 Y104.131 E0.25327
G1 X149.195 Y104.329 E0.27805
G1 X150.052 Y104.398 E0.30664
G1 X150.786 Y104.333 E0.33115
G1 X151.518 Y104.131 E0.35641
G1 X152.19 Y103.814 E0.38112
G1 X152.797 Y103.389 E0.40577
G1 X153.418 Y102.771 E0.43491
G1 X153.821 Y102.172 E0.45892
G1 X154.12 Y101.542 E0.48211
G1 X154.332 Y100.787 E0.50819
G1 X154.398 Y99.945 E0.53629
G1 X154.331 Y99.213 E0.56073
G1 X154.13 Y98.482 E0.58595
G1 X153.826 Y97.825 E0.61003
G1 X153.378 Y97.179 E0.63617
G1 X152.795 Y96.603 E0.66343
G1 X152.204 Y96.19 E0.68741
G1 X151.479 Y95.852 E0.71402
G1 X150.761 Y95.668 E0.73867
G1 X150.013 Y95.603 E0.76364
G1 X149.216 Y95.672 E0.79025
G1 X148.473 Y95.878 E0.8159
G1 X147.808 Y96.184 E0.84024
G1 X147.191 Y96.623 E0.86543
G1 X146.623 Y97.18 E0.89189
G1 X146.177 Y97.833 E0.91819
G0 F3600 X146.014 Y97.7
G1 F600 X146.476 Y97.04 E0.94498
G1 X147.04 Y96.476 E0.97151
G1 X147.7 Y96.014 E0.99831
G1 X148.424 Y95.675 E1.0249
G1 X149.202 Y95.467 E1.05168
G1 X150 Y95.397 E1.07833
G1 X150.798 Y95.467 E1.10497
G1 X151.576 Y95.675 E1.13176
G1 X152.3 Y96.014 E1.15834
G1 X152.96 Y96.476 E1.18514
G1 X153.524 Y97.04 E1.21167
G1 X153.986 Y97.7 E1.23846
G1 X154.325 Y98.424 E1.26505
G1 X154.532 Y99.199 E1.29173
G1 X154.603 Y100 E1.31848
G1 X154.533 Y100.798 E1.34512
G1 X154.325 Y101.576 E1.37191
G1 X153.986 Y102.3 E1.3985
G1 X153.524 Y102.96 E1.42529
G1 X152.96 Y103.524 E1.45182
G1 X152.3 Y103.986 E1.47862
G1 X151.576 Y104.325 E1.50521
G1 X150.798 Y104.533 E1.53199
G1 X150 Y104.603 E1.55864
G1 X149.202 Y104.533 E1.58528
G1 X148.424 Y104.325 E1.61206
G1 X147.7 Y103.986 E1.63865
G1 X147.04 Y103.524 E1.66545
G1 X146.476 Y102.96 E1.69198
G1 X146.014 Y102.3 E1.71877
G1 X145.675 Y101.576 E1.74536
G1 X145.467 Y100.798 E1.77215
G1 X145.397 Y100 E1.79879
G1 X145.468 Y99.199 E1.82554
G1 X145.675 Y98.424 E1.85222
G1 X146.014 Y97.7 E1.87881
G1 F1500 E-0.12119
G1 F300 Z0.6
;MESH:bushings.stl
G0 F3600 X148.907 Y106.184 Z0.6
;TYPE:WALL-INNER
G1 F300 Z0.2
G1 F1500 E1.87881
G1 F441.2 X147.848 Y105.899 E1.92841
G1 F442 X146.859 Y105.438 E1.97768
G1 F441.2 X145.966 Y104.81 E2.02706
G1 F440.4 X145.188 Y104.031 E2.07696
G1 F441.2 X144.56 Y103.138 E2.12634
G1 X144.099 Y102.146 E2.17582
G1 X143.816 Y101.09 E2.22527
G1 X143.722 Y99.998 E2.27485
G1 X143.816 Y98.907 E2.32438
G1 X144.101 Y97.848 E2.37399
G1 X144.562 Y96.859 E2.42335
G1 X145.19 Y95.966 E2.47273
G1 F440.4 X145.969 Y95.188 E2.52262
G1 F441.2 X146.862 Y94.56 E2.572
G1 X147.851 Y94.1 E2.62134
G1 X148.91 Y93.816 E2.67094
G1 X150.003 Y93.721 E2.72056
G1 X151.093 Y93.816 E2.77006
G1 X152.152 Y94.101 E2.81966
G1 X153.141 Y94.562 E2.86902
G1 X154.035 Y95.189 E2.91841
G1 X154.812 Y95.969 E2.96821
G1 X155.44 Y96.862 E3.0176
G1 F440.4 X155.899 Y97.85 E3.06696
G1 X156.184 Y98.91 E3.11671
G1 X156.278 Y100.002 E3.16638
G1 F441.2 X156.184 Y101.093 E3.21591
G1 X155.9 Y102.15 E3.26542
G1 F442 X155.438 Y103.14 E3.31474
G1 F441.2 X154.81 Y104.034 E3.36416
G1 F440.4 X154.031 Y104.812 E3.41406
G1 X153.138 Y105.44 E3.46353
G1 F441.2 X152.149 Y105.9 E3.51287
G1 F440.4 X151.09 Y106.184 E3.56255
G1 X149.997 Y106.278 E3.61227
G1 F441.2 X148.907 Y106.184 E3.66176
G0 F3600 X148.989 Y105.719
;TYPE:WALL-OUTER
G1 F600 X147.997 Y105.45 E3.69423
G1 X147.096 Y105.031 E3.72563
G1 X146.269 Y104.448 E3.7576
G1 X145.551 Y103.73 E3.78968
G1 X144.961 Y102.887 E3.8222
G1 X144.543 Y101.986 E3.85358
G1 X144.285 Y101.029 E3.8849
G1 X144.194 Y99.984 E3.91804
G1 X144.281 Y98.989 E3.9496
G1 X144.55 Y97.998 E3.98205
G1 X144.979 Y97.082 E4.01401
G1 X145.552 Y96.269 E4.04543
G1 X146.27 Y95.551 E4.07752
G1 X147.113 Y94.961 E4.11003
G1 X148.03 Y94.538 E4.14194
G1 X148.971 Y94.285 E4.17273
G1 X150.001 Y94.193 E4.2054
G1 X151.011 Y94.281 E4.23744
G1 X152.003 Y94.55 E4.26991
G1 X152.918 Y94.979 E4.30184
G1 X153.731 Y95.552 E4.33327
G1 X154.449 Y96.27 E4.36535
G1 X155.039 Y97.113 E4.39787
G1 X155.461 Y98.028 E4.4297
G1 X155.719 Y98.99 E4.46118
G1 X155.806 Y100 E4.49321
G1 X155.719 Y101.011 E4.52527
G1 X155.462 Y101.97 E4.55664
G1 X155.031 Y102.903 E4.58911
G1 X154.448 Y103.731 E4.62111
G1 X153.718 Y104.458 E4.65366
G1 X152.888 Y105.039 E4.68568
G1 X151.97 Y105.462 E4.71761
G1 X151.01 Y105.719 E4.74902
G1 X149.982 Y105.806 E4.78161
G1 X148.989 Y105.719 E4.81311
G0 F3600 X148.813 Y106.72
;TYPE:WALL-INNER
G1 F441.2 X149.996 Y106.825 E4.86683
G1 F440.4 X151.183 Y106.721 E4.92083
G1 X152.335 Y106.413 E4.97487
G1 F441.2 X153.409 Y105.911 E5.02849
G1 F440.4 X154.381 Y105.231 E5.08225
G1 X155.229 Y104.385 E5.13653
G1 F441.2 X155.909 Y103.413 E5.19019
G1 F442 X156.411 Y102.337 E5.2438
G1 F441.2 X156.72 Y101.187 E5.29766
G1 X156.825 Y100.003 E5.35143
G1 F440.4 X156.724 Y98.841 E5.40429
G1 X156.412 Y97.665 E5.45942
G1 X155.911 Y96.591 E5.51313
G1 F441.2 X155.232 Y95.619 E5.56676
G1 X154.384 Y94.772 E5.62098
G1 X153.413 Y94.091 E5.67462
G1 X152.339 Y93.59 E5.72823
G1 X151.187 Y93.28 E5.78219
G1 X150.004 Y93.176 E5.83591
G1 X148.817 Y93.279 E5.88981
G1 X147.665 Y93.587 E5.94375
G1 X146.591 Y94.089 E5.99737
G1 X145.619 Y94.768 E6.05101
G1 F440.4 X144.771 Y95.615 E6.10532
G1 F441.2 X144.091 Y96.587 E6.15898
G1 X143.589 Y97.66 E6.21256
G1 X143.28 Y98.813 E6.26656
G1 X143.175 Y99.997 E6.32032
G1 X143.279 Y101.183 E6.37418
G1 X143.586 Y102.332 E6.42797
G1 X144.089 Y103.409 E6.48174
G1 X144.768 Y104.381 E6.53538
G1 F440.4 X145.615 Y105.229 E6.58969
G1 F441.2 X146.587 Y105.909 E6.64335
G1 F442 X147.661 Y106.41 E6.69686
G1 F441.2 X148.813 Y106.72 E6.75082
G0 F3600 X148.73 Y107.187
;TYPE:WALL-OUTER
G1 F600 X149.996 Y107.299 E6.79098
G1 X151.265 Y107.188 E6.83123
G1 X152.498 Y106.858 E6.87156
G1 X153.646 Y106.322 E6.91159
G1 X154.686 Y105.595 E6.95168
G1 X155.592 Y104.689 E6.99217
G1 X156.319 Y103.65 E7.03224
G1 X156.857 Y102.5 E7.07235
G1 X157.187 Y101.27 E7.11259
G1 X157.299 Y100.003 E7.15278
G1 X157.194 Y98.799 E7.19097
G1 X157.188 Y98.735 E7.193
G1 X156.858 Y97.502 E7.23333
G1 X156.322 Y96.354 E7.27336
G1 X155.595 Y95.315 E7.31343
G1 X154.689 Y94.409 E7.35392
G1 X153.65 Y93.68 E7.39402
G1 X152.502 Y93.144 E7.43405
G1 X151.27 Y92.813 E7.47436
G1 X150.004 Y92.702 E7.51452
G1 X148.735 Y92.812 E7.55476
G1 X147.502 Y93.142 E7.59509
G1 X146.354 Y93.679 E7.63514
G1 X145.315 Y94.405 E7.67519
G1 X144.408 Y95.311 E7.7157
G1 X143.68 Y96.35 E7.75578
G1 X143.144 Y97.497 E7.79579
G1 X142.813 Y98.73 E7.83613
G1 X142.701 Y99.997 E7.87632
G1 X142.812 Y101.265 E7.91653
G1 X143.14 Y102.494 E7.95673
G1 X143.679 Y103.646 E7.99691
G1 X144.405 Y104.685 E8.03696
G1 X145.311 Y105.592 E8.07747
G1 X146.35 Y106.319 E8.11754
G1 X147.498 Y106.856 E8.15758
G1 X148.73 Y107.187 E8.19789
G1 F1500 E6.19789
G1 F300 Z0.6
;MESH:NONMESH
G0 F3600 X145.894 Y97.634 Z0.6
;TIME_ELAPSED:31.414203
;LAYER:1
M106 S85
G0 F4500 X145.894 Y97.634 Z0.8
;TYPE:SUPPORT
G1 F300 Z0.4
G1 F1500 E8.19789
G1 F1078.7 X145.546 Y98.374 E8.22815
G1 X145.332 Y99.18 E8.25901
G1 F1076.2 X145.261 Y100.002 E8.2896
G1 X145.332 Y100.82 E8.32005
G1 F1073.8 X145.548 Y101.625 E8.35103
G1 F1076.2 X145.893 Y102.367 E8.38138
G1 X146.369 Y103.043 E8.41204
G1 F1073.8 X146.956 Y103.631 E8.44292
G1 F1081.1 X147.633 Y104.108 E8.4735
G1 F1083.5 X148.371 Y104.451 E8.50347
G1 X149.18 Y104.669 E8.53434
G1 F1078.7 X150 Y104.739 E8.56479
G1 X150.801 Y104.672 E8.59453
G1 F1083.5 X151.629 Y104.451 E8.6261
G1 F1078.7 X152.367 Y104.107 E8.65623
G1 F1073.8 X153.043 Y103.63 E8.68698
G1 X153.631 Y103.044 E8.71783
G1 F1076.2 X154.106 Y102.366 E8.74853
G1 X154.453 Y101.625 E8.77888
G1 F1081.1 X154.669 Y100.82 E8.80965
G1 X154.736 Y100.017 E8.8394
G1 F1078.7 X154.669 Y99.18 E8.87046
G1 X154.45 Y98.371 E8.90148
G1 F1076.2 X154.107 Y97.633 E8.93166
G1 F1081.1 X153.632 Y96.956 E8.96219
G1 F1078.7 X153.044 Y96.369 E8.99293
G1 F1081.1 X152.367 Y95.892 E9.02351
G1 F1086 X151.63 Y95.548 E9.0534
G1 F1081.1 X150.82 Y95.332 E9.08435
G1 F1078.7 X150 Y95.261 E9.1148
G1 X149.18 Y95.332 E9.14526
G1 F1076.2 X148.371 Y95.55 E9.17633
G1 X147.633 Y95.893 E9.20651
G1 F1073.8 X146.957 Y96.37 E9.23726
G1 X146.368 Y96.956 E9.26814
G1 F1076.2 X145.894 Y97.634 E9.29882
G1 F1500 E7.29882
G1 F300 Z0.8
G0 F4500 X145.708 Y99.993 Z0.8
G1 F300 Z0.4
G1 F1500 E9.29882
G1 F1076.2 X145.775 Y99.246 E9.32664
G1 F1078.7 X145.963 Y98.527 E9.35413
G1 X146.277 Y97.866 E9.38121
G1 F1076.2 X146.7 Y97.253 E9.40883
G1 F1073.8 X147.256 Y96.705 E9.43785
G1 X147.853 Y96.281 E9.46506
G1 F1076.2 X148.525 Y95.971 E9.49251
G1 X149.253 Y95.772 E9.5205
G1 F1078.7 X149.999 Y95.709 E9.5482
G1 X150.736 Y95.771 E9.57557
G1 F1081.1 X151.47 Y95.962 E9.60357
G1 F1086 X152.14 Y96.274 E9.63073
G1 F1081.1 X152.748 Y96.703 E9.6582
G1 F1078.7 X153.301 Y97.253 E9.68706
G1 F1081.1 X153.724 Y97.86 E9.71438
G1 F1076.2 X154.033 Y98.528 E9.74167
G1 F1078.7 X154.23 Y99.249 E9.76933
G1 X154.292 Y99.98 E9.79647
G1 F1081.1 X154.231 Y100.75 E9.82499
G1 X154.031 Y101.48 E9.85293
G1 F1078.7 X153.733 Y102.114 E9.87885
G1 X153.31 Y102.734 E9.90663
G1 F1073.8 X152.749 Y103.291 E9.93601
G1 X152.133 Y103.727 E9.96406
G1 F1078.7 X151.475 Y104.034 E9.99093
G1 F1083.5 X150.746 Y104.231 E10.01874
G1 F1081.1 X150.013 Y104.292 E10.0459
G1 F1078.7 X149.243 Y104.229 E10.07448
G1 F1083.5 X148.513 Y104.03 E10.10236
G1 X147.861 Y103.727 E10.12884
G1 F1081.1 X147.244 Y103.29 E10.15675
G1 F1073.8 X146.705 Y102.746 E10.18522
G1 F1076.2 X146.282 Y102.148 E10.21238
G1 X145.973 Y101.483 E10.23957
G1 F1073.8 X145.77 Y100.727 E10.26867
G1 F1076.2 X145.708 Y99.993 E10.29599
G1 F1500 E8.29599
G1 F300 Z0.8
;MESH:bushings.stl
G0 F4500 X148.906 Y106.207 Z0.8
;TYPE:WALL-INNER
G1 F300 Z0.4
G1 F1500 E10.29599
G1 F1134.2 X147.842 Y105.921 E10.34445
G1 F1136.4 X146.847 Y105.459 E10.39261
G1 X145.951 Y104.828 E10.44073
G1 F1134.2 X145.172 Y104.049 E10.48919
G1 F1136.4 X144.541 Y103.153 E10.5373
G1 F1134.2 X144.077 Y102.154 E10.58575
G1 X143.793 Y101.094 E10.63402
G1 X143.698 Y100.002 E10.68223
G1 X143.793 Y98.905 E10.73067
G1 X144.077 Y97.846 E10.7789
G1 X144.541 Y96.847 E10.82735
G1 F1136.4 X145.172 Y95.951 E10.87546
G1 F1134.2 X145.951 Y95.172 E10.92392
G1 F1136.4 X146.847 Y94.541 E10.97203
G1 X147.842 Y94.079 E11.0202
G1 F1134.2 X148.906 Y93.793 E11.06866
G1 X150 Y93.698 E11.11696
G1 F1136.4 X151.094 Y93.792 E11.16517
G1 X152.158 Y94.079 E11.21355
G1 X153.153 Y94.541 E11.26171
G1 X154.049 Y95.172 E11.30983
G1 F1134.2 X154.828 Y95.951 E11.35829
G1 F1136.4 X155.459 Y96.847 E11.4064
G1 X155.921 Y97.842 E11.45456
G1 F1134.2 X156.207 Y98.906 E11.50303
G1 X156.302 Y99.998 E11.55124
G1 F1136.4 X156.208 Y101.095 E11.59958
G1 X155.923 Y102.154 E11.64773
G1 X155.459 Y103.153 E11.69609
G1 X154.828 Y104.049 E11.7442
G1 F1134.2 X154.049 Y104.828 E11.79266
G1 F1136.4 X153.153 Y105.459 E11.84077
G1 F1134.2 X152.158 Y105.922 E11.88904
G1 X151.094 Y106.207 E11.9375
G1 X150 Y106.302 E11.9858
G1 X148.906 Y106.207 E12.0341
G0 F4500 X148.984 Y105.75
;TYPE:WALL-OUTER
G1 F1200 X147.986 Y105.479 E12.06678
G1 X147.08 Y105.059 E12.09833
G1 X146.249 Y104.472 E12.13048
G1 X145.528 Y103.751 E12.1627
G1 X144.933 Y102.903 E12.19543
G1 X144.514 Y101.996 E12.227
G1 X144.254 Y101.035 E12.25845
G1 X144.163 Y99.984 E12.29179
G1 X144.25 Y98.984 E12.3235
G1 X144.514 Y98.004 E12.35557
G1 X144.933 Y97.097 E12.38714
G1 X145.528 Y96.249 E12.41987
G1 X146.249 Y95.528 E12.45209
G1 X147.097 Y94.933 E12.48482
G1 X148.019 Y94.509 E12.51689
G1 X148.965 Y94.254 E12.54785
G1 X150 Y94.162 E12.58068
G1 X151.016 Y94.25 E12.6129
G1 X152.014 Y94.521 E12.64558
G1 X152.903 Y94.933 E12.67654
G1 X153.751 Y95.528 E12.70927
G1 X154.472 Y96.249 E12.74149
G1 X155.067 Y97.097 E12.77422
G1 X155.485 Y98 E12.80566
G1 X155.75 Y98.984 E12.83786
G1 X155.838 Y99.998 E12.87002
G1 X155.75 Y101.016 E12.9023
G1 X155.486 Y101.997 E12.9344
G1 X155.059 Y102.919 E12.96651
G1 X154.472 Y103.751 E12.99868
G1 X153.751 Y104.472 E13.0309
G1 X152.92 Y105.058 E13.06303
G1 X151.981 Y105.491 E13.0957
G1 X151.016 Y105.75 E13.12727
G1 X150 Y105.838 E13.15949
G1 X148.984 Y105.75 E13.19172
G0 F4500 X148.816 Y106.729
;TYPE:WALL-INNER
G1 F1134.2 X150 Y106.833 E13.244
G1 X151.184 Y106.729 E13.29628
G1 X152.338 Y106.419 E13.34884
G1 X153.417 Y105.916 E13.4012
G1 F1136.4 X154.39 Y105.234 E13.45337
G1 F1134.2 X155.234 Y104.39 E13.50587
G1 F1136.4 X155.916 Y103.417 E13.55804
G1 X156.422 Y102.334 E13.61052
G1 X156.729 Y101.184 E13.66278
G1 X156.831 Y100.02 E13.71408
G1 F1134.2 X156.729 Y98.816 E13.76723
G1 X156.42 Y97.662 E13.81977
G1 F1136.4 X155.916 Y96.583 E13.87206
G1 X155.234 Y95.61 E13.92423
G1 F1134.2 X154.39 Y94.766 E13.97673
G1 F1136.4 X153.417 Y94.084 E14.02889
G1 X152.338 Y93.58 E14.08118
G1 X151.184 Y93.271 E14.13363
G1 X150 Y93.167 E14.18581
G1 F1134.2 X148.816 Y93.271 E14.23809
G1 X147.662 Y93.58 E14.29064
G1 F1136.4 X146.583 Y94.084 E14.34292
G1 X145.61 Y94.766 E14.39509
G1 F1134.2 X144.766 Y95.61 E14.44759
G1 F1136.4 X144.084 Y96.583 E14.49976
G1 F1134.2 X143.579 Y97.666 E14.55232
G1 X143.271 Y98.816 E14.60469
G1 X143.168 Y100.002 E14.65705
G1 X143.271 Y101.184 E14.70924
G1 X143.579 Y102.334 E14.76161
G1 X144.084 Y103.417 E14.81417
G1 F1136.4 X144.766 Y104.39 E14.86634
G1 F1134.2 X145.61 Y105.234 E14.91884
G1 F1136.4 X146.583 Y105.916 E14.97101
G1 X147.662 Y106.42 E15.02329
G1 F1134.2 X148.816 Y106.729 E15.07584
G0 F4500 X148.735 Y107.188
;TYPE:WALL-OUTER
G1 F1200 X150 Y107.299 E15.11596
G1 X151.265 Y107.188 E15.15609
G1 X152.498 Y106.858 E15.19642
G1 X153.65 Y106.32 E15.23659
G1 X154.689 Y105.592 E15.27668
G1 X155.592 Y104.689 E15.31703
G1 X156.319 Y103.65 E15.3571
G1 X156.86 Y102.494 E15.39743
G1 X157.187 Y101.265 E15.43761
G1 X157.293 Y100.06 E15.47583
G1 X157.299 Y99.998 E15.4778
G1 X157.188 Y98.735 E15.51786
G1 X156.858 Y97.502 E15.55819
G1 X156.32 Y96.35 E15.59836
G1 X155.592 Y95.311 E15.63845
G1 X154.689 Y94.408 E15.6788
G1 X153.65 Y93.68 E15.71889
G1 X152.498 Y93.142 E15.75906
G1 X151.265 Y92.812 E15.79939
G1 X150 Y92.701 E15.83952
G1 X148.735 Y92.812 E15.87964
G1 X147.502 Y93.142 E15.91997
G1 X146.35 Y93.68 E15.96014
G1 X145.311 Y94.408 E16.00023
G1 X144.408 Y95.311 E16.04058
G1 X143.68 Y96.35 E16.08067
G1 X143.14 Y97.506 E16.12098
G1 X142.812 Y98.735 E16.16117
G1 X142.701 Y100.002 E16.20136
G1 X142.812 Y101.265 E16.24142
G1 X143.14 Y102.494 E16.28161
G1 X143.68 Y103.65 E16.32193
G1 X144.408 Y104.689 E16.36201
G1 X145.311 Y105.592 E16.40237
G1 X146.35 Y106.319 E16.44243
G1 X147.502 Y106.858 E16.48262
G1 X148.735 Y107.188 E16.52295
G1 F1500 E14.52295
G1 F300 Z0.8
;MESH:NONMESH
G0 F4500 X145.877 Y97.617 Z0.8
;TIME_ELAPSED:44.729892
;LAYER:2
M106 S170
G0 F5400 X145.877 Y97.617 Z1
;TYPE:SUPPORT
G1 F300 Z0.6
G1 F1500 E16.52295
