;FLAVOR:Marlin
;TIME:8551
;Filament used: 6.69644m
;Layer height: 0.2
;MINX:90.692
;MINY:32.473
;MINZ:0.2
;MAXX:209.308
;MAXY:93.847
;MAXZ:24.2
;Generated with Cura_SteamEngine 5.2.1
M140 S60
M105
M190 S60
M104 S200
M105
M109 S200
M82 ;absolute extrusion mode
G28 ; home all axes
 G29; ABL
 M117 Purge extruder
 G92 E0 ; reset extruder
 G1 Z1.0 F3000 ; move z up little to prevent scratching of surface
 G1 X2 Y20 Z0.3 F5000.0 ; move to start-line position
 G1 X2 Y200.0 Z0.3 F1500.0 E15 ; draw 1st line
 G1 X2 Y200.0 Z0.4 F5000.0 ; move to side a little
 G1 X2 Y20 Z0.4 F1500.0 E30 ; draw 2nd line
 G92 E0 ; reset extruder
 G1 Z1.0 F3000 ; move z up little to prevent scratching of surface
G92 E0
G92 E0
G1 F1500 E-2
;LAYER_COUNT:119
;LAYER:0
M107
G1 F300 Z0.6
;MESH:Carriage.stl
G0 F3600 X102.79 Y46.976 Z0.6
;TYPE:WALL-INNER
G1 F300 Z0.2
G1 F1500 E0
G1 F600 X102.509 Y47.016 E0.00944
G1 X99.913 Y47.016 E0.09578
G1 X99.778 Y47.007 E0.10028
G1 X99.649 Y46.981 E0.10466
G1 X99.534 Y46.941 E0.10871
G1 X99.434 Y46.894 E0.11239
G1 X99.279 Y46.79 E0.11859
G1 X99.182 Y46.699 E0.12302
G1 X99.094 Y46.59 E0.12768
G1 X99.019 Y46.464 E0.13255
G1 X98.961 Y46.324 E0.13759
G1 X98.927 Y46.188 E0.14226
G1 X98.913 Y46.015 E0.14803
G1 X98.913 Y40.802 E0.32141
G1 X98.938 Y40.576 E0.32898
G1 X98.968 Y40.471 E0.33261
G1 X99.029 Y40.332 E0.33766
G1 X99.096 Y40.224 E0.34188
G1 X99.175 Y40.126 E0.34607
G1 X99.246 Y40.055 E0.34941
G1 X99.334 Y39.985 E0.35315
G1 X99.45 Y39.915 E0.35766
G1 X99.594 Y39.853 E0.36287
G1 X99.74 Y39.816 E0.36788
G1 X99.913 Y39.802 E0.37365
G1 X102.509 Y39.801 E0.46
G1 X102.79 Y39.841 E0.46944
G1 X103.111 Y40.001 E0.48137
G1 X103.393 Y40.33 E0.49578
G1 X103.51 Y40.802 E0.51195
G1 X103.51 Y46.015 E0.68534
G1 X103.496 Y46.188 E0.69111
G1 X103.393 Y46.486 E0.7016
G1 X103.111 Y46.816 E0.71604
G1 X102.79 Y46.976 E0.72796
G0 F3600 X102.678 Y46.592
G1 F600 X102.509 Y46.616 E0.73364
G1 X99.913 Y46.616 E0.81999
G1 X99.755 Y46.595 E0.82529
G1 X99.625 Y46.542 E0.82996
G1 X99.533 Y46.48 E0.83365
G1 X99.474 Y46.425 E0.83633
G1 X99.421 Y46.36 E0.83912
G1 X99.376 Y46.285 E0.84203
G1 X99.342 Y46.2 E0.84507
G1 X99.321 Y46.119 E0.84786
G1 X99.313 Y46.015 E0.85132
G1 X99.313 Y40.802 E1.02471
G1 X99.328 Y40.666 E1.02926
G1 X99.35 Y40.593 E1.0318
G1 X99.395 Y40.497 E1.03532
G1 X99.453 Y40.416 E1.03864
G1 X99.55 Y40.323 E1.04311
G1 X99.635 Y40.269 E1.04646
G1 X99.721 Y40.233 E1.04956
G1 X99.809 Y40.21 E1.05258
G1 X99.913 Y40.202 E1.05605
G1 X102.509 Y40.201 E1.14239
G1 X102.678 Y40.225 E1.14807
G1 X102.87 Y40.321 E1.15521
G1 X103.04 Y40.519 E1.16389
G1 X103.11 Y40.802 E1.17359
G1 X103.11 Y46.015 E1.34697
G1 X103.102 Y46.119 E1.35044
G1 X103.04 Y46.298 E1.35674
G1 X102.87 Y46.496 E1.36542
G1 X102.678 Y46.592 E1.37256
G0 F3600 X102.63 Y46.176
;TYPE:WALL-OUTER
G1 F600 X102.566 Y46.208 E1.37482
G1 X102.509 Y46.216 E1.37664
G1 X99.886 Y46.214 E1.45952
G1 X99.837 Y46.201 E1.46112
G1 X99.766 Y46.152 E1.46385
G1 X99.734 Y46.105 E1.46564
G1 X99.715 Y46.047 E1.46757
G1 X99.718 Y40.735 E1.63542
G1 X99.765 Y40.666 E1.63805
G1 X99.806 Y40.632 E1.63974
G1 X99.878 Y40.604 E1.64218
G1 X102.509 Y40.601 E1.72531
G1 X102.566 Y40.609 E1.72713
G1 X102.63 Y40.641 E1.72939
G1 X102.686 Y40.707 E1.73213
G1 X102.71 Y40.802 E1.73522
G1 X102.707 Y46.05 E1.90104
G1 X102.686 Y46.11 E1.90305
G1 X102.63 Y46.176 E1.90579
G1 F1500 E-0.09421
G1 F300 Z0.6
G0 F3600 X102.948 Y61.06 Z0.6
;TYPE:WALL-INNER
G1 F300 Z0.2
G1 F1500 E1.90579
G1 F600 X102.573 Y61.158 E1.91868
G1 X99.826 Y61.156 E2.01004
G1 X99.654 Y61.126 E2.01585
G1 X99.441 Y61.041 E2.02348
G1 X99.286 Y60.939 E2.02965
G1 X99.182 Y60.842 E2.03438
G1 X99.063 Y60.688 E2.04085
G1 X98.982 Y60.527 E2.04685
G1 X98.927 Y60.332 E2.05359
G1 X98.913 Y60.159 E2.05936
G1 X98.913 Y54.946 E2.23274
G1 X98.927 Y54.773 E2.23852
G1 X98.961 Y54.637 E2.24318
G1 X99.019 Y54.497 E2.24822
G1 X99.094 Y54.371 E2.2531
G1 X99.182 Y54.262 E2.25776
G1 X99.279 Y54.171 E2.26218
G1 X99.434 Y54.067 E2.26839
G1 X99.534 Y54.02 E2.27206
G1 X99.649 Y53.981 E2.2761
G1 X99.825 Y53.949 E2.28205
G1 X102.509 Y53.945 E2.37132
G1 X102.79 Y53.985 E2.38076
G1 X103.111 Y54.145 E2.39269
G1 X103.393 Y54.474 E2.4071
G1 X103.51 Y54.946 E2.42328
G1 X103.51 Y60.159 E2.59666
G1 X103.496 Y60.332 E2.60244
G1 X103.332 Y60.73 E2.61675
G1 X102.948 Y61.06 E2.63359
G0 F3600 X103.003 Y60.502
G1 F600 X102.772 Y60.7 E2.64371
G1 X102.548 Y60.759 E2.65142
G1 X99.86 Y60.757 E2.74082
G1 X99.757 Y60.739 E2.7443
G1 X99.629 Y60.689 E2.74887
G1 X99.537 Y60.627 E2.75256
G1 X99.474 Y60.569 E2.75541
G1 X99.403 Y60.477 E2.75927
G1 X99.354 Y60.38 E2.76289
G1 X99.321 Y60.263 E2.76693
G1 X99.313 Y60.159 E2.7704
G1 X99.313 Y54.946 E2.94378
G1 X99.321 Y54.842 E2.94725
G1 X99.342 Y54.76 E2.95007
G1 X99.376 Y54.676 E2.95308
G1 X99.421 Y54.601 E2.95599
G1 X99.474 Y54.536 E2.95878
G1 X99.533 Y54.481 E2.96146
G1 X99.625 Y54.419 E2.96515
G1 X99.685 Y54.39 E2.96737
G1 X99.832 Y54.351 E2.97243
G1 X102.509 Y54.345 E3.06147
G1 X102.678 Y54.369 E3.06714
G1 X102.87 Y54.465 E3.07428
G1 X103.04 Y54.663 E3.08296
G1 X103.11 Y54.946 E3.09266
G1 X103.11 Y60.159 E3.26604
G1 X103.102 Y60.263 E3.26951
G1 X103.003 Y60.502 E3.27812
G0 F3600 X102.674 Y60.274
;TYPE:WALL-OUTER
G1 F600 X102.597 Y60.34 E3.28132
G1 X102.522 Y60.359 E3.28377
G1 X99.895 Y60.359 E3.36677
G1 X99.818 Y60.336 E3.36931
G1 X99.752 Y60.279 E3.37207
G1 X99.715 Y60.214 E3.37443
G1 X99.715 Y54.911 E3.54199
G1 X99.734 Y54.856 E3.54383
G1 X99.766 Y54.809 E3.54563
G1 X99.837 Y54.76 E3.54835
G1 X99.886 Y54.747 E3.54995
G1 X102.509 Y54.745 E3.63283
G1 X102.566 Y54.753 E3.63465
G1 X102.63 Y54.785 E3.63691
G1 X102.686 Y54.851 E3.63965
G1 X102.71 Y54.946 E3.64274
G1 X102.707 Y60.194 E3.80856
G1 X102.674 Y60.274 E3.8113
G1 F1500 E1.8113
G1 F300 Z0.6
G0 F3600 X102.789 Y71.72 Z0.6
;TYPE:WALL-INNER
G1 F300 Z0.2
G1 F1500 E3.8113
G1 F600 X102.507 Y71.759 E3.82077
G1 X99.875 Y71.758 E3.90831
G1 X99.756 Y71.746 E3.91229
G1 X99.618 Y71.714 E3.917
G1 X99.445 Y71.643 E3.92322
G1 X99.29 Y71.542 E3.92937
G1 X99.222 Y71.482 E3.93239
G1 X99.129 Y71.38 E3.93698
G1 X99.078 Y71.31 E3.93986
G1 X99.014 Y71.199 E3.94412
G1 X98.983 Y71.127 E3.94673
G1 X98.93 Y70.948 E3.95294
G1 X98.913 Y70.758 E3.95928
G1 X98.913 Y65.545 E4.13267
G1 X98.93 Y65.356 E4.13898
G1 X98.983 Y65.177 E4.14519
G1 X99.063 Y65.016 E4.15117
G1 X99.182 Y64.862 E4.15764
G1 X99.286 Y64.765 E4.16237
G1 X99.441 Y64.663 E4.16854
G1 X99.654 Y64.578 E4.17617
G1 X99.826 Y64.548 E4.18198
G1 X102.573 Y64.547 E4.27334
G1 X102.948 Y64.645 E4.28623
G1 X103.332 Y64.975 E4.30307
G1 X103.51 Y65.546 E4.32297
G1 X103.508 Y70.759 E4.49635
G1 X103.496 Y70.932 E4.50212
G1 X103.393 Y71.23 E4.51261
G1 X103.11 Y71.56 E4.52707
G1 X102.789 Y71.72 E4.53899
G0 F3600 X102.677 Y71.336
G1 F600 X102.507 Y71.359 E4.5447
G1 X99.89 Y71.358 E4.63174
G1 X99.759 Y71.339 E4.63614
G1 X99.661 Y71.304 E4.63961
G1 X99.584 Y71.261 E4.64254
G1 X99.498 Y71.193 E4.64619
G1 X99.424 Y71.108 E4.64993
G1 X99.355 Y70.98 E4.65477
G1 X99.321 Y70.862 E4.65885
G1 X99.313 Y70.758 E4.66232
G1 X99.313 Y65.545 E4.83571
G1 X99.323 Y65.431 E4.83952
G1 X99.355 Y65.324 E4.84323
G1 X99.403 Y65.227 E4.84683
G1 X99.474 Y65.135 E4.85069
G1 X99.537 Y65.077 E4.85354
G1 X99.629 Y65.015 E4.85723
G1 X99.757 Y64.965 E4.8618
G1 X99.86 Y64.947 E4.86528
G1 X102.548 Y64.947 E4.95468
G1 X102.772 Y65.005 E4.96238
G1 X103.003 Y65.203 E4.9725
G1 X103.11 Y65.546 E4.98445
G1 X103.108 Y70.759 E5.15783
G1 X103.101 Y70.863 E5.1613
G1 X103.039 Y71.042 E5.1676
G1 X102.869 Y71.24 E5.17628
G1 X102.677 Y71.336 E5.18342
G0 F3600 X102.629 Y70.92
;TYPE:WALL-OUTER
G1 F600 X102.565 Y70.952 E5.18568
G1 X102.507 Y70.959 E5.18753
G1 X99.881 Y70.956 E5.2705
G1 X99.803 Y70.926 E5.27314
G1 X99.774 Y70.903 E5.27431
G1 X99.736 Y70.853 E5.2763
G1 X99.715 Y70.793 E5.27831
G1 X99.716 Y65.507 E5.44533
G1 X99.752 Y65.425 E5.44816
G1 X99.818 Y65.368 E5.45091
G1 X99.895 Y65.345 E5.45345
G1 X102.522 Y65.346 E5.53646
G1 X102.597 Y65.365 E5.5389
G1 X102.674 Y65.431 E5.54211
G1 X102.71 Y65.546 E5.54591
G1 X102.706 Y70.794 E5.71174
G1 X102.685 Y70.854 E5.71375
G1 X102.629 Y70.92 E5.71648
G1 F1500 E3.71648
G1 F300 Z0.6
G0 F3600 X95.805 Y81.62 Z0.6
;TYPE:WALL-INNER
G1 F300 Z0.2
G1 F1500 E5.71648
G1 F600 X95.554 Y81.637 E5.72485
G1 X95.205 Y81.619 E5.73647
G1 X94.957 Y81.579 E5.74483
G1 X94.68 Y81.503 E5.75438
G1 X94.538 Y81.45 E5.75942
G1 X94.231 Y81.303 E5.77074
G1 X94.022 Y81.171 E5.77896
G1 X93.894 Y81.076 E5.78427
G1 X93.7 Y80.905 E5.79287
G1 X93.537 Y80.734 E5.80072
G1 X93.367 Y80.513 E5.81
G1 X93.239 Y80.31 E5.81798
G1 X93.187 Y80.212 E5.82167
G1 X93.09 Y79.995 E5.82958
G1 X93.003 Y79.74 E5.83854
G1 X92.952 Y79.523 E5.84595
G1 X92.925 Y79.338 E5.85217
G1 X92.908 Y78.987 E5.86386
G1 X92.925 Y78.736 E5.87222
G1 X92.966 Y78.484 E5.88072
G1 X93.035 Y78.23 E5.88947
G1 X93.121 Y78.004 E5.89751
G1 X93.24 Y77.764 E5.90642
G1 X93.373 Y77.552 E5.91475
G1 X93.533 Y77.346 E5.92342
G1 X93.695 Y77.173 E5.93131
G1 X93.902 Y76.99 E5.94049
G1 X94.098 Y76.852 E5.94847
G1 X94.33 Y76.719 E5.95736
G1 X94.549 Y76.621 E5.96534
G1 X94.804 Y76.533 E5.97431
G1 X95.049 Y76.478 E5.98267
G1 X95.299 Y76.446 E5.99105
G1 X95.479 Y76.437 E5.99704
G1 X95.761 Y76.449 E6.00643
G1 X96.014 Y76.486 E6.01493
G1 X96.263 Y76.549 E6.02348
G1 X96.46 Y76.618 E6.03042
G1 X96.733 Y76.743 E6.04041
G1 X96.923 Y76.856 E6.04776
G1 X97.16 Y77.03 E6.05754
G1 X97.371 Y77.225 E6.06709
G1 X97.524 Y77.394 E6.07468
G1 X97.667 Y77.589 E6.08272
G1 X97.799 Y77.807 E6.0912
G1 X97.892 Y78.002 E6.09838
G1 X97.979 Y78.229 E6.10647
G1 X98.048 Y78.484 E6.11525
G1 X98.099 Y78.827 E6.12679
G1 X98.107 Y79.087 E6.13544
G1 X98.099 Y79.245 E6.1407
G1 X98.056 Y79.555 E6.15111
G1 X98.011 Y79.744 E6.15757
G1 X97.92 Y80.006 E6.1668
G1 X97.775 Y80.31 E6.178
G1 X97.641 Y80.522 E6.18634
G1 X97.481 Y80.728 E6.19502
G1 X97.319 Y80.901 E6.2029
G1 X97.112 Y81.084 E6.21209
G1 X96.916 Y81.222 E6.22006
G1 X96.684 Y81.355 E6.22896
G1 X96.465 Y81.454 E6.23695
G1 X96.21 Y81.541 E6.24591
G1 X95.967 Y81.596 E6.2542
G1 X95.805 Y81.62 E6.25964
G0 F3600 X96.114 Y81.152
G1 F600 X95.908 Y81.2 E6.26668
G1 X95.686 Y81.23 E6.27413
G1 X95.476 Y81.237 E6.28112
G1 X95.319 Y81.229 E6.28635
G1 X95.051 Y81.19 E6.29535
G1 X94.894 Y81.152 E6.30073
G1 X94.68 Y81.076 E6.30828
G1 X94.499 Y80.993 E6.3149
G1 X94.306 Y80.88 E6.32234
G1 X94.133 Y80.754 E6.32946
G1 X93.97 Y80.61 E6.33669
G1 X93.83 Y80.462 E6.34347
G1 X93.691 Y80.278 E6.35114
G1 X93.581 Y80.102 E6.35804
G1 X93.466 Y79.857 E6.36704
G1 X93.392 Y79.644 E6.37454
G1 X93.346 Y79.454 E6.38105
G1 X93.315 Y79.224 E6.38877
G1 X93.307 Y79.007 E6.39599
G1 X93.315 Y78.85 E6.40122
G1 X93.344 Y78.637 E6.40837
G1 X93.392 Y78.43 E6.41543
G1 X93.484 Y78.172 E6.42454
G1 X93.55 Y78.031 E6.42972
G1 X93.664 Y77.837 E6.43721
G1 X93.789 Y77.663 E6.44433
G1 X93.933 Y77.501 E6.45154
G1 X94.082 Y77.36 E6.45836
G1 X94.306 Y77.194 E6.46764
G1 X94.499 Y77.081 E6.47508
G1 X94.687 Y76.996 E6.48194
G1 X94.9 Y76.922 E6.48944
G1 X95.107 Y76.874 E6.49651
G1 X95.32 Y76.845 E6.50366
G1 X95.538 Y76.837 E6.51091
G1 X95.722 Y76.847 E6.51704
G1 X95.937 Y76.879 E6.52427
G1 X96.146 Y76.931 E6.53143
G1 X96.376 Y77.016 E6.53959
G1 X96.544 Y77.095 E6.54576
G1 X96.712 Y77.196 E6.55228
G1 X96.928 Y77.358 E6.56126
G1 X97.043 Y77.463 E6.56644
G1 X97.184 Y77.612 E6.57327
G1 X97.335 Y77.812 E6.5816
G1 X97.447 Y77.997 E6.58879
G1 X97.529 Y78.171 E6.59519
G1 X97.603 Y78.367 E6.60216
G1 X97.67 Y78.636 E6.61138
G1 X97.699 Y78.848 E6.6185
G1 X97.707 Y79.067 E6.62578
G1 X97.699 Y79.225 E6.63105
G1 X97.664 Y79.474 E6.63941
G1 X97.6 Y79.722 E6.64793
G1 X97.546 Y79.864 E6.65298
G1 X97.433 Y80.102 E6.66174
G1 X97.32 Y80.283 E6.66884
G1 X97.186 Y80.458 E6.67617
G1 X97.046 Y80.608 E6.683
G1 X96.876 Y80.76 E6.69058
G1 X96.708 Y80.88 E6.69745
G1 X96.515 Y80.993 E6.70489
G1 X96.327 Y81.078 E6.71175
G1 X96.114 Y81.152 E6.71925
G0 F3600 X96.347 Y80.63
;TYPE:WALL-OUTER
G1 F600 X96.205 Y80.696 E6.7242
G1 X96.018 Y80.764 E6.73048
G1 X95.868 Y80.801 E6.73537
G1 X95.668 Y80.83 E6.74175
G1 X95.496 Y80.837 E6.74719
G1 X95.321 Y80.827 E6.75273
G1 X95.145 Y80.801 E6.75835
G1 X94.988 Y80.763 E6.76345
G1 X94.822 Y80.702 E6.76904
G1 X94.667 Y80.63 E6.77444
G1 X94.499 Y80.528 E6.78065
G1 X94.371 Y80.433 E6.78569
G1 X94.228 Y80.303 E6.7918
G1 X94.123 Y80.19 E6.79667
G1 X94.006 Y80.029 E6.80296
G1 X93.923 Y79.894 E6.80797
G1 X93.848 Y79.735 E6.81352
G1 X93.78 Y79.548 E6.81981
G1 X93.74 Y79.385 E6.82511
G1 X93.715 Y79.204 E6.83088
G1 X93.707 Y79.027 E6.83648
G1 X93.717 Y78.852 E6.84202
G1 X93.743 Y78.676 E6.84764
G1 X93.78 Y78.526 E6.85252
G1 X93.847 Y78.341 E6.85874
G1 X93.913 Y78.199 E6.86369
G1 X94.016 Y78.029 E6.86997
G1 X94.111 Y77.901 E6.87501
G1 X94.24 Y77.759 E6.88107
G1 X94.354 Y77.653 E6.88599
G1 X94.514 Y77.536 E6.89225
G1 X94.667 Y77.444 E6.89789
G1 X94.809 Y77.378 E6.90284
G1 X94.996 Y77.31 E6.90913
G1 X95.146 Y77.273 E6.91401
G1 X95.34 Y77.245 E6.9202
G1 X95.518 Y77.237 E6.92583
G1 X95.683 Y77.245 E6.93105
G1 X95.859 Y77.271 E6.93667
G1 X96.039 Y77.317 E6.94254
G1 X96.206 Y77.378 E6.94816
G1 X96.355 Y77.448 E6.95336
G1 X96.501 Y77.536 E6.95875
G1 X96.651 Y77.647 E6.96464
G1 X96.785 Y77.77 E6.97039
G1 X96.906 Y77.903 E6.97607
G1 X97.003 Y78.035 E6.98125
G1 X97.1 Y78.197 E6.98721
G1 X97.166 Y78.339 E6.99216
G1 X97.227 Y78.505 E6.99775
G1 X97.271 Y78.676 E7.00333
G1 X97.299 Y78.868 E7.00946
G1 X97.307 Y79.047 E7.01512
G1 X97.297 Y79.223 E7.02069
G1 X97.271 Y79.399 E7.02631
G1 X97.226 Y79.58 E7.03221
G1 X97.166 Y79.735 E7.03746
G1 X97.091 Y79.894 E7.04301
G1 X96.998 Y80.045 E7.04862
G1 X96.903 Y80.173 E7.05365
G1 X96.774 Y80.315 E7.05971
G1 X96.66 Y80.421 E7.06463
G1 X96.5 Y80.538 E7.0709
G1 X96.347 Y80.63 E7.07654
G1 F1500 E5.07654
G1 F300 Z0.6
G0 F3600 X102.79 Y85.864 Z0.6
;TYPE:WALL-INNER
G1 F300 Z0.2
G1 F1500 E7.07654
G1 F600 X102.508 Y85.903 E7.08601
G1 X99.912 Y85.903 E7.17235
G1 X99.739 Y85.889 E7.17812
G1 X99.618 Y85.86 E7.18226
G1 X99.483 Y85.807 E7.18708
G1 X99.405 Y85.766 E7.19001
G1 X99.303 Y85.697 E7.19411
G1 X99.165 Y85.57 E7.20035
G1 X99.109 Y85.501 E7.2033
G1 X99.026 Y85.369 E7.20849
G1 X98.973 Y85.25 E7.21282
G1 X98.926 Y85.076 E7.21882
G1 X98.912 Y84.947 E7.22313
G1 X98.913 Y79.657 E7.39908
G1 X98.923 Y79.544 E7.40285
G1 X98.956 Y79.396 E7.4079
G1 X98.994 Y79.293 E7.41155
G1 X99.039 Y79.202 E7.41492
G1 X99.153 Y79.039 E7.42154
G1 X99.289 Y78.907 E7.42784
G1 X99.452 Y78.802 E7.43429
G1 X99.598 Y78.74 E7.43957
G1 X99.767 Y78.7 E7.44534
G1 X99.902 Y78.69 E7.44985
G1 X102.508 Y78.69 E7.53652
G1 X102.789 Y78.729 E7.54596
G1 X103.11 Y78.889 E7.55789
G1 X103.393 Y79.218 E7.57232
G1 X103.508 Y79.69 E7.58848
G1 X103.508 Y84.903 E7.76186
G1 X103.496 Y85.076 E7.76763
G1 X103.393 Y85.374 E7.77812
G1 X103.11 Y85.704 E7.79258
G1 X102.79 Y85.864 E7.80448
G0 F3600 X102.677 Y85.48
G1 F600 X102.508 Y85.503 E7.81015
G1 X99.912 Y85.503 E7.89649
G1 X99.808 Y85.495 E7.89996
G1 X99.736 Y85.477 E7.90243
G1 X99.655 Y85.446 E7.90532
G1 X99.575 Y85.401 E7.90837
G1 X99.505 Y85.345 E7.91135
G1 X99.43 Y85.262 E7.91507
G1 X99.38 Y85.183 E7.91818
G1 X99.349 Y85.112 E7.92076
G1 X99.32 Y85.007 E7.92438
G1 X99.312 Y84.929 E7.92699
G1 X99.315 Y79.634 E8.1031
G1 X99.325 Y79.568 E8.10532
G1 X99.361 Y79.452 E8.10936
G1 X99.388 Y79.397 E8.1114
G1 X99.457 Y79.299 E8.11539
G1 X99.538 Y79.22 E8.11915
G1 X99.636 Y79.157 E8.12302
G1 X99.724 Y79.12 E8.1262
G1 X99.883 Y79.09 E8.13158
G1 X102.508 Y79.09 E8.21889
G1 X102.677 Y79.113 E8.22456
G1 X102.869 Y79.209 E8.2317
G1 X103.039 Y79.407 E8.24038
G1 X103.108 Y79.69 E8.25007
G1 X103.108 Y84.903 E8.42345
G1 X103.101 Y85.007 E8.42692
